assets/icons/uE007-camera.svg

<svg xmlns="http://www.w3.org/2000/svg" width="896" height="1232" viewBox="0 0 896 1232"><path d="M728 294q0-17-12.5-29.5T686 252t-29.5 12.5T644 294t12.5 29.5T686 336t29.5-12.5T728 294zM448 406q93 0 158.5 65.5T672 630t-65.5 158.5T448 854t-158.5-65.5T224 630t65.5-158.5T448 406zm0 420q81 0 138.5-57.5T644 630t-57.5-138.5T448 434t-138.5 57.5T252 630t57.5 138.5T448 826zm392-686q23 0 39.5 16.5T896 196v588q0 23-16.5 39.5T840 840H689q-44 51-107 80.5T448 950t-134-29.5T207 840H56q-23 0-39.5-16.5T0 784V196q0-23 16.5-39.5T56 140h166l39-59q17-25 47-25h280q30 0 47 25l39 59h166zM448 908q115 0 196.5-81.5T726 630t-81.5-196.5T448 352t-196.5 81.5T170 630q0 116 81 197t197 81zm392-124V196H644l-56-84H308l-56 84H56v588h111q-39-72-39-154 0-133 93.5-226.5T448 310t226.5 93.5T768 630q0 82-39 154h111z"/></svg>

<?xml version="1.0" encoding="UTF-8" standalone="no"?><svg   xmlns:svg="http://www.w3.org/2000/svg"   xmlns="http://www.w3.org/2000/svg"   version="1.1"   width="896"   height="1232"   viewBox="0 0 896 1232">  <path     d="M728 294Q728 277 715.5 264.5T686 252T656.5 264.5T644 294T656.5 323.5T686 336T715.5 323.5T728 294zM448 406Q541 406 606.5 471.5T672 630T606.5 788.5T448 854T289.5 788.5T224 630T289.5 471.5T448 406zM448 826Q529 826 586.5 768.5T644 630T586.5 491.5T448 434T309.5 491.5T252 630T309.5 768.5T448 826zM840 140Q863 140 879.5 156.5T896 196V784Q896 807 879.5 823.5T840 840H689Q645 891 582 920.5T448 950T314 920.5T207 840H56Q33 840 16.5 823.5T0 784V196Q0 173 16.5 156.5T56 140H222L261 81Q278 56 308 56H588Q618 56 635 81L674 140H840zM448 908Q563 908 644.5 826.5T726 630T644.5 433.5T448 352T251.5 433.5T170 630Q170 746 251 827T448 908zM840 784V196H644L588 112H308L252 196H56V784H167Q128 712 128 630Q128 497 221.5 403.5T448 310T674.5 403.5T768 630Q768 712 729 784H840z"     id="icon413" /></svg>
